src/containers/site/SiteSafetyScreen/asset/security_image.svg

<svg width="633" height="557" fill="none" xmlns="http://www.w3.org/2000/svg"><path d="M353.266 428.265l-13.38-7.63c-31.307-17.919-57.724-45.355-76.336-79.478-18.784-34.466-28.734-74.248-28.734-115.058v-6.087a15.461 15.461 0 017.291-13.118C275.472 186.06 313.897 175 353.266 175s77.794 11.06 111.159 31.894c4.545 2.829 7.29 7.716 7.29 13.118v6.087c0 40.81-9.949 80.678-28.733 115.058-18.612 34.123-44.944 61.559-76.336 79.478l-13.38 7.63zm0-239.547c-36.796 0-72.648 10.288-103.869 29.836-.514.343-.772.857-.772 1.458v6.087c0 38.581 9.35 76.134 27.018 108.542 17.326 31.894 41.942 57.444 71.104 74.076l6.519 3.773 6.518-3.773c29.162-16.632 53.693-42.268 71.104-74.076 17.669-32.408 27.018-69.961 27.018-108.542v-6.087c0-.601-.343-1.115-.772-1.458-31.22-19.548-67.073-29.836-103.868-29.836z" fill="#FAF7F5"/><path d="M350.693 329.411c-1.716 0-3.431-.686-4.718-1.886l-37.31-35.581a6.884 6.884 0 01-.257-9.688 6.891 6.891 0 019.692-.257l31.22 29.836 39.369-62.416c2.059-3.172 6.261-4.201 9.435-2.143 3.173 2.057 4.203 6.258 2.144 9.431l-43.743 69.532c-1.115 1.715-2.916 2.915-4.975 3.172h-.857z" fill="#FAF7F5"/></svg>

<svg width="633" height="557" viewBox="0 0 633 557" fill="none" xmlns="http://www.w3.org/2000/svg">
<path d="M353.266 428.265L339.886 420.635C308.579 402.716 282.162 375.28 263.55 341.157C244.766 306.691 234.816 266.909 234.816 226.099V220.012C234.816 214.696 237.561 209.723 242.107 206.894C275.472 186.06 313.897 175 353.266 175C392.635 175 431.06 186.06 464.425 206.894C468.97 209.723 471.715 214.61 471.715 220.012V226.099C471.715 266.909 461.766 306.777 442.982 341.157C424.37 375.28 398.038 402.716 366.646 420.635L353.266 428.265ZM353.266 188.718C316.47 188.718 280.618 199.006 249.397 218.554C248.883 218.897 248.625 219.411 248.625 220.012V226.099C248.625 264.68 257.975 302.233 275.643 334.641C292.969 366.535 317.585 392.085 346.747 408.717L353.266 412.49L359.784 408.717C388.946 392.085 413.477 366.449 430.888 334.641C448.557 302.233 457.906 264.68 457.906 226.099V220.012C457.906 219.411 457.563 218.897 457.134 218.554C425.914 199.006 390.061 188.718 353.266 188.718Z" fill="#FAF7F5"/>
<path d="M350.693 329.411C348.977 329.411 347.262 328.725 345.975 327.525L308.665 291.944C305.92 289.287 305.835 285 308.408 282.256C311.067 279.513 315.355 279.427 318.1 281.999L349.32 311.835L388.689 249.419C390.748 246.247 394.95 245.218 398.124 247.276C401.297 249.333 402.327 253.534 400.268 256.707L356.525 326.239C355.41 327.954 353.609 329.154 351.55 329.411C351.207 329.411 350.95 329.411 350.693 329.411Z" fill="#FAF7F5"/>
</svg>
